icons/fill-new-office-identification-card-2.svg

<svg xmlns="http://www.w3.org/2000/svg" width="32px" height="32px" viewBox="0 0 32 32" version="1.1">
    <title>fill-new-office-identification-card-2</title>
    <g id="fill-new-office-identification-card-2" stroke-width="1" fill-rule="evenodd">
        <path d="M29,5 C29.5522847,5 30,5.44771525 30,6 L30,26 C30,26.5522847 29.5522847,27 29,27 L3,27 C2.44771525,27 2,26.5522847 2,26 L2,6 C2,5.44771525 2.44771525,5 3,5 L29,5 Z M13,11 L7,11 C6.44771525,11 6,11.4477153 6,12 L6,20 C6,20.5522847 6.44771525,21 7,21 L13,21 C13.5522847,21 14,20.5522847 14,20 L14,12 C14,11.4477153 13.5522847,11 13,11 Z M25,18 L19,18 C18.4477153,18 18,18.4477153 18,19 C18,19.5522847 18.4477153,20 19,20 L25,20 C25.5522847,20 26,19.5522847 26,19 C26,18.4477153 25.5522847,18 25,18 Z M25,12 L19,12 C18.4477153,12 18,12.4477153 18,13 C18,13.5522847 18.4477153,14 19,14 L25,14 C25.5522847,14 26,13.5522847 26,13 C26,12.4477153 25.5522847,12 25,12 Z" id="&#24418;&#29366;" />
    </g>
</svg>

<svg xmlns="http://www.w3.org/2000/svg" viewBox="0 0 32 32"><path fill="currentColor" d="M29 5a1 1 0 0 1 1 1v20a1 1 0 0 1-1 1H3a1 1 0 0 1-1-1V6a1 1 0 0 1 1-1zm-16 6H7a1 1 0 0 0-1 1v8a1 1 0 0 0 1 1h6a1 1 0 0 0 1-1v-8a1 1 0 0 0-1-1m12 7h-6a1 1 0 0 0 0 2h6a1 1 0 0 0 0-2m0-6h-6a1 1 0 0 0 0 2h6a1 1 0 0 0 0-2"/></svg>
